app/assets/images/heroicons/mini/h2.svg

<svg width="20" height="20" viewBox="0 0 20 20" fill="none" xmlns="http://www.w3.org/2000/svg">
<path fill-rule="evenodd" clip-rule="evenodd" d="M2.75 4C3.16421 4 3.5 4.33579 3.5 4.75V9.25H8.5V4.75C8.5 4.33579 8.83579 4 9.25 4C9.66421 4 10 4.33579 10 4.75V15.25C10 15.6642 9.66421 16 9.25 16C8.83579 16 8.5 15.6642 8.5 15.25V10.75H3.5V15.25C3.5 15.6642 3.16421 16 2.75 16C2.33579 16 2 15.6642 2 15.25V4.75C2 4.33579 2.33579 4 2.75 4ZM15 9.5C14.2714 9.5 13.5551 9.55104 12.8545 9.64965C12.4444 9.70737 12.065 9.42166 12.0073 9.01149C11.9496 8.60132 12.2353 8.22201 12.6455 8.16428C13.4151 8.05596 14.2012 8 15 8C15.4951 8 15.9853 8.0215 16.4698 8.06364C17.3246 8.13799 17.9824 8.84381 17.9974 9.70117C17.9991 9.80058 18 9.90019 18 10C18 10.2117 17.9961 10.4226 17.9883 10.6325C17.9611 11.3641 17.4695 11.9674 16.8088 12.1876L14.3547 13.0057C13.8443 13.1758 13.5 13.6535 13.5 14.1915V14.5H17.25C17.6642 14.5 18 14.8358 18 15.25C18 15.6642 17.6642 16 17.25 16H12.75C12.3358 16 12 15.6642 12 15.25V14.1915C12 13.0078 12.7574 11.957 13.8804 11.5826L16.3345 10.7646C16.4363 10.7307 16.4866 10.6483 16.4893 10.5768C16.4964 10.3854 16.5 10.1932 16.5 10C16.5 9.90895 16.4992 9.81809 16.4976 9.72743C16.496 9.6374 16.4289 9.56575 16.3398 9.558C15.8985 9.51961 15.4516 9.5 15 9.5Z" fill="black"/>
</svg>

<svg xmlns="http://www.w3.org/2000/svg" viewBox="0 0 20 20" fill="currentColor" aria-hidden="true" data-slot="icon">
  <path fill-rule="evenodd" d="M2.75 4a.75.75 0 0 1 .75.75v4.5h5v-4.5a.75.75 0 0 1 1.5 0v10.5a.75.75 0 0 1-1.5 0v-4.5h-5v4.5a.75.75 0 0 1-1.5 0V4.75A.75.75 0 0 1 2.75 4ZM15 9.5c-.729 0-1.445.051-2.146.15a.75.75 0 0 1-.208-1.486 16.887 16.887 0 0 1 3.824-.1c.855.074 1.512.78 1.527 1.637a17.476 17.476 0 0 1-.009.931 1.713 1.713 0 0 1-1.18 1.556l-2.453.818a1.25 1.25 0 0 0-.855 1.185v.309h3.75a.75.75 0 0 1 0 1.5h-4.5a.75.75 0 0 1-.75-.75v-1.059a2.75 2.75 0 0 1 1.88-2.608l2.454-.818c.102-.034.153-.117.155-.188a15.556 15.556 0 0 0 .009-.85.171.171 0 0 0-.158-.169A15.458 15.458 0 0 0 15 9.5Z" clip-rule="evenodd"/>
</svg>
